src/epub/images/titlepage.svg

<?xml version="1.0" encoding="UTF-8"?>
<svg xmlns="http://www.w3.org/2000/svg" xmlns:se="https://standardebooks.org/vocab/1.0" version="1.1" viewBox="0 0 1400 340" se:generated-from="46fcfb59989e72e550c3c1099f7b49e76bd020e3">
	<path d="m 125.8918,52.807016 0,77.192984 17.59065,0 0,-28.63158 10.5731,0 c 15.06432,0 26.38596,-8.888888 26.38596,-24.795322 0,-16 -11.32164,-23.766082 -26.38596,-23.766082 l -28.16375,0 z m 17.59065,34.526317 0,-20.491229 4.95906,0 c 6.92398,0 13.47369,2.339181 13.47369,10.292398 0,7.859649 -6.54971,10.198831 -13.47369,10.198831 l -4.95906,0 z"/>
	<path d="m 193.20906,52.807016 0,77.192984 17.59064,0 0,-30.502925 L 234.37865,130 l 22.36257,0 -26.5731,-31.906433 c 9.45029,-2.994152 15.81287,-10.760234 15.81287,-22.362574 0,-15.157895 -10.8538,-22.923977 -25.16959,-22.923977 l -27.60234,0 z m 17.59064,34.245615 0,-20.210527 2.05848,0 c 6.64327,0 14.59649,0.467836 14.59649,10.105263 0,9.637428 -7.95322,10.105264 -14.59649,10.105264 l -2.05848,0 z"/>
	<path d="m 282.86842,52.807016 -17.59065,0 0,77.192984 17.59065,0 0,-77.192984 z"/>
	<path d="m 299.15204,52.807016 0,77.192984 22.36258,0 c 21.23976,0 38.92397,-16.09357 38.92397,-38.643276 0,-22.45614 -17.77778,-38.549708 -38.92397,-38.549708 l -22.36258,0 z m 17.59065,61.473684 0,-45.754385 2.71345,0 c 13.09941,0 21.9883,10.011696 21.9883,22.923977 -0.0936,12.912278 -8.98246,22.830408 -21.9883,22.830408 l -2.71345,0 z"/>
	<path d="m 417.39473,52.807016 -44.16374,0 0,77.192984 44.16374,0 0,-15.4386 -26.5731,0 0,-15.532161 25.4503,0 0,-15.438597 -25.4503,0 0,-15.345029 26.5731,0 0,-15.438597 z"/>
	<path d="m 502.2968,52.807016 -16.2807,0 L 454.8582,130 l 18.90059,0 5.7076,-15.4386 29.38012,0 5.7076,15.4386 18.90059,0 -31.1579,-77.192984 z m 0.5614,46.31579 -17.40351,0 8.60819,-22.45614 0.18714,0 8.60818,22.45614 z"/>
	<path d="m 558.96493,82.093566 0.18713,0 L 589.84212,130 l 17.59065,0 0,-77.192984 -17.59065,0 0,47.906434 -0.18713,0 -30.69006,-47.906434 -17.59064,0 0,77.192984 17.59064,0 0,-47.906434 z"/>
	<path d="m 623.6769,52.807016 0,77.192984 22.36257,0 c 21.23977,0 38.92398,-16.09357 38.92398,-38.643276 0,-22.45614 -17.77778,-38.549708 -38.92398,-38.549708 l -22.36257,0 z m 17.59064,61.473684 0,-45.754385 2.71345,0 c 13.09942,0 21.98831,10.011696 21.98831,22.923977 -0.0936,12.912278 -8.98246,22.830408 -21.98831,22.830408 l -2.71345,0 z"/>
	<path d="m 728.34066,52.807016 0,77.192984 17.59064,0 0,-28.63158 10.5731,0 c 15.06433,0 26.38596,-8.888888 26.38596,-24.795322 0,-16 -11.32163,-23.766082 -26.38596,-23.766082 l -28.16374,0 z m 17.59064,34.526317 0,-20.491229 4.95906,0 c 6.92398,0 13.47369,2.339181 13.47369,10.292398 0,7.859649 -6.54971,10.198831 -13.47369,10.198831 l -4.95906,0 z"/>
	<path d="m 795.65792,52.807016 0,77.192984 17.59064,0 0,-30.502925 L 836.82751,130 l 22.36257,0 -26.5731,-31.906433 c 9.45029,-2.994152 15.81287,-10.760234 15.81287,-22.362574 0,-15.157895 -10.8538,-22.923977 -25.16959,-22.923977 l -27.60234,0 z m 17.59064,34.245615 0,-20.210527 2.05848,0 c 6.64327,0 14.59649,0.467836 14.59649,10.105263 0,9.637428 -7.95322,10.105264 -14.59649,10.105264 l -2.05848,0 z"/>
	<path d="m 911.89039,52.807016 -44.16375,0 0,77.192984 44.16375,0 0,-15.4386 -26.5731,0 0,-15.532161 25.45029,0 0,-15.438597 -25.45029,0 0,-15.345029 26.5731,0 0,-15.438597 z"/>
	<path d="m 960.59359,52.807016 -17.59064,0 0,50.900584 c 0,7.76608 -3.83626,10.8538 -8.88889,10.8538 -4.49123,0 -10.0117,-5.23976 -10.0117,-5.23976 l -5.61403,14.69006 c 0,0 7.01754,7.39181 18.05848,7.39181 15.4386,0 24.04678,-8.04678 24.04678,-23.20468 l 0,-55.391814 z"/>
	<path d="m 1035.1842,52.807016 -17.5906,0 0,44.63158 c 0,12.912284 -3.9299,16.654974 -12.538,16.654974 -8.60824,0 -12.53806,-3.74269 -12.53806,-16.654974 l 0,-44.63158 -17.59064,0 0,49.777774 c 0,19.08772 10.47953,28.81872 30.1287,28.81872 19.6491,0 30.1286,-9.731 30.1286,-28.81872 l 0,-49.777774 z"/>
	<path d="m 1050.4898,52.807016 0,77.192984 22.3625,0 c 21.2398,0 38.924,-16.09357 38.924,-38.643276 0,-22.45614 -17.7778,-38.549708 -38.924,-38.549708 l -22.3625,0 z m 17.5906,61.473684 0,-45.754385 2.7135,0 c 13.0994,0 21.9883,10.011696 21.9883,22.923977 -0.094,12.912278 -8.9825,22.830408 -21.9883,22.830408 l -2.7135,0 z"/>
	<path d="m 1142.1594,52.807016 -17.5907,0 0,77.192984 17.5907,0 0,-77.192984 z"/>
	<path d="m 1196.595,114.09357 c -17.6842,0 -25.4503,-12.35088 -25.4503,-22.736846 0,-10.292397 7.7661,-22.643275 25.4503,-22.643275 8.9825,0 15.1579,4.77193 15.1579,4.77193 l 7.4854,-14.97076 c 0,0 -8.6082,-7.111112 -25.3567,-7.111112 -21.8948,0 -41.8246,17.964913 -41.8246,40.140352 0,22.081871 20.0234,39.859651 41.8246,39.859651 16.7485,0 25.3567,-7.11111 25.3567,-7.11111 l -7.4854,-14.97076 c 0,0 -6.1754,4.77193 -15.1579,4.77193 z"/>
	<path d="m 1275.2238,52.807016 -44.1638,0 0,77.192984 44.1638,0 0,-15.4386 -26.5731,0 0,-15.532161 25.4503,0 0,-15.438597 -25.4503,0 0,-15.345029 26.5731,0 0,-15.438597 z"/>
	<path d="m 456.52796,232.10526 -13.19298,0 0,38.17544 c 0,5.82456 -2.87719,8.14035 -6.66667,8.14035 -3.36842,0 -7.50877,-3.92982 -7.50877,-3.92982 l -4.21052,11.01754 c 0,0 5.26315,5.54386 13.54386,5.54386 11.57894,0 18.03508,-6.03509 18.03508,-17.40351 l 0,-41.54386 z"/>
	<path d="m 498.63323,232.10526 -12.21053,0 L 463.05428,290 l 14.17544,0 4.2807,-11.57895 22.03509,0 4.2807,11.57895 14.17544,0 -23.36842,-57.89474 z m 0.42105,34.73685 -13.05263,0 6.45614,-16.84211 0.14035,0 6.45614,16.84211 z"/>
	<path d="m 542.38432,254.07018 0.14035,0 23.01755,35.92982 13.19298,0 0,-57.89474 -13.19298,0 0,35.92983 -0.14035,0 -23.01755,-35.92983 -13.19298,0 0,57.89474 13.19298,0 0,-35.92982 z"/>
	<path d="m 625.29113,232.10526 -33.12281,0 0,57.89474 33.12281,0 0,-11.57895 -19.92982,0 0,-11.64912 19.08772,0 0,-11.57895 -19.08772,0 0,-11.50877 19.92982,0 0,-11.57895 z"/>
	<path d="m 691.46766,232.10526 -12.21053,0 L 655.88871,290 l 14.17544,0 4.2807,-11.57895 22.03509,0 4.2807,11.57895 14.17544,0 -23.36842,-57.89474 z m 0.42105,34.73685 -13.05263,0 6.45614,-16.84211 0.14035,0 6.45614,16.84211 z"/>
	<path d="m 766.517,232.10526 -13.19298,0 0,33.47369 c 0,9.68421 -2.94737,12.49123 -9.40351,12.49123 -6.45614,0 -9.40351,-2.80702 -9.40351,-12.49123 l 0,-33.47369 -13.19298,0 0,37.33334 c 0,14.31579 7.85965,21.61403 22.59649,21.61403 14.73684,0 22.59649,-7.29824 22.59649,-21.61403 l 0,-37.33334 z"/>
	<path d="m 799.2089,231.05263 c -9.33333,0 -18.87719,6.8772 -18.87719,17.68421 0,6.03509 4.07017,11.4386 11.01754,14.8772 6.8772,3.43859 13.05263,5.33333 13.05263,9.54385 0,5.40351 -5.47368,5.68422 -8.35087,5.68422 -6.45614,0 -14.17544,-6.52632 -14.17544,-6.52632 l -6.59649,11.08772 c 0,0 8.21052,7.64912 21.75438,7.64912 11.29825,0 21.82456,-4.8421 21.82456,-18.66666 0,-7.57895 -7.08771,-13.05264 -13.54385,-15.78948 -6.5965,-2.80702 -12.07018,-5.12281 -12.07018,-8.35088 0,-3.15789 2.38596,-5.19298 6.87719,-5.19298 5.96491,0 11.7193,4 11.7193,4 l 5.33333,-10.52631 c 0,0 -7.43859,-5.47369 -17.96491,-5.47369 z"/>
	<path d="m 822.94901,243.68421 13.75439,0 0,46.31579 13.19298,0 0,-46.31579 13.75438,0 0,-11.57895 -40.70175,0 0,11.57895 z"/>
	<path d="m 906.52468,232.10526 -33.12281,0 0,57.89474 33.12281,0 0,-11.57895 -19.92982,0 0,-11.64912 19.08772,0 0,-11.57895 -19.08772,0 0,-11.50877 19.92982,0 0,-11.57895 z"/>
	<path d="m 932.3021,254.07018 0.14035,0 L 955.46,290 l 13.19298,0 0,-57.89474 -13.19298,0 0,35.92983 -0.14035,0 -23.01755,-35.92983 -13.19298,0 0,57.89474 13.19298,0 0,-35.92982 z"/>
</svg>

<?xml version="1.0" encoding="UTF-8"?>
<svg xmlns="http://www.w3.org/2000/svg" xmlns:se="https://standardebooks.org/vocab/1.0" version="1.1" viewBox="0 0 1400 340" se:generated-from="6225a91d45fedcd0900ab6d2b25b9fcb787f7877">
	<path d="M 125.8918,52.807016 125.8918,130 143.48245,130 143.48245,101.36842 154.05555,101.36842 C 169.11987,101.36842 180.44151,92.479532 180.44151,76.573098 180.44151,60.573098 169.11987,52.807016 154.05555,52.807016 L 125.8918,52.807016 Z M 143.48245,87.333333 143.48245,66.842104 148.44151,66.842104 C 155.36549,66.842104 161.9152,69.181285 161.9152,77.134502 161.9152,84.994151 155.36549,87.333333 148.44151,87.333333 L 143.48245,87.333333 Z"/>
	<path d="M 193.20906,52.807016 193.20906,130 210.7997,130 210.7997,99.497075 234.37865,130 256.74122,130 230.16812,98.093567 C 239.61841,95.099415 245.98099,87.333333 245.98099,75.730993 245.98099,60.573098 235.12719,52.807016 220.8114,52.807016 L 193.20906,52.807016 Z M 210.7997,87.052631 210.7997,66.842104 212.85818,66.842104 C 219.50145,66.842104 227.45467,67.30994 227.45467,76.947367 227.45467,86.584795 219.50145,87.052631 212.85818,87.052631 L 210.7997,87.052631 Z"/>
	<path d="M 282.86842,52.807016 265.27777,52.807016 265.27777,130 282.86842,130 282.86842,52.807016 Z"/>
	<path d="M 299.15204,52.807016 299.15204,130 321.51462,130 C 342.75438,130 360.43859,113.90643 360.43859,91.356724 360.43859,68.900584 342.66081,52.807016 321.51462,52.807016 L 299.15204,52.807016 Z M 316.74269,114.2807 316.74269,68.526315 319.45614,68.526315 C 332.55555,68.526315 341.44444,78.538011 341.44444,91.450292 341.35087,104.36257 332.46198,114.2807 319.45614,114.2807 L 316.74269,114.2807 Z"/>
	<path d="M 417.39473,52.807016 373.23099,52.807016 373.23099,130 417.39473,130 417.39473,114.5614 390.82163,114.5614 390.82163,99.029239 416.27193,99.029239 416.27193,83.590642 390.82163,83.590642 390.82163,68.245613 417.39473,68.245613 417.39473,52.807016 Z"/>
	<path d="M 502.2968,52.807016 486.0161,52.807016 454.8582,130 473.75879,130 479.46639,114.5614 508.84651,114.5614 514.55411,130 533.4547,130 502.2968,52.807016 Z M 502.8582,99.122806 485.45469,99.122806 494.06288,76.666666 494.25002,76.666666 502.8582,99.122806 Z"/>
	<path d="M 558.96493,82.093566 559.15206,82.093566 589.84212,130 607.43277,130 607.43277,52.807016 589.84212,52.807016 589.84212,100.71345 589.65499,100.71345 558.96493,52.807016 541.37429,52.807016 541.37429,130 558.96493,130 558.96493,82.093566 Z"/>
	<path d="M 623.6769,52.807016 623.6769,130 646.03947,130 C 667.27924,130 684.96345,113.90643 684.96345,91.356724 684.96345,68.900584 667.18567,52.807016 646.03947,52.807016 L 623.6769,52.807016 Z M 641.26754,114.2807 641.26754,68.526315 643.98099,68.526315 C 657.08041,68.526315 665.9693,78.538011 665.9693,91.450292 665.87573,104.36257 656.98684,114.2807 643.98099,114.2807 L 641.26754,114.2807 Z"/>
	<path d="M 728.34066,52.807016 728.34066,130 745.9313,130 745.9313,101.36842 756.5044,101.36842 C 771.56873,101.36842 782.89036,92.479532 782.89036,76.573098 782.89036,60.573098 771.56873,52.807016 756.5044,52.807016 L 728.34066,52.807016 Z M 745.9313,87.333333 745.9313,66.842104 750.89036,66.842104 C 757.81434,66.842104 764.36405,69.181285 764.36405,77.134502 764.36405,84.994151 757.81434,87.333333 750.89036,87.333333 L 745.9313,87.333333 Z"/>
	<path d="M 795.65792,52.807016 795.65792,130 813.24856,130 813.24856,99.497075 836.82751,130 859.19008,130 832.61698,98.093567 C 842.06727,95.099415 848.42985,87.333333 848.42985,75.730993 848.42985,60.573098 837.57605,52.807016 823.26026,52.807016 L 795.65792,52.807016 Z M 813.24856,87.052631 813.24856,66.842104 815.30704,66.842104 C 821.95031,66.842104 829.90353,67.30994 829.90353,76.947367 829.90353,86.584795 821.95031,87.052631 815.30704,87.052631 L 813.24856,87.052631 Z"/>
	<path d="M 911.89039,52.807016 867.72664,52.807016 867.72664,130 911.89039,130 911.89039,114.5614 885.31729,114.5614 885.31729,99.029239 910.76758,99.029239 910.76758,83.590642 885.31729,83.590642 885.31729,68.245613 911.89039,68.245613 911.89039,52.807016 Z"/>
	<path d="M 960.59359,52.807016 943.00295,52.807016 943.00295,103.7076 C 943.00295,111.47368 939.16669,114.5614 934.11406,114.5614 929.62283,114.5614 924.10236,109.32164 924.10236,109.32164 L 918.48833,124.0117 C 918.48833,124.0117 925.50587,131.40351 936.54681,131.40351 951.98541,131.40351 960.59359,123.35673 960.59359,108.19883 L 960.59359,52.807016 Z"/>
	<path d="M 1035.1842,52.807016 1017.5936,52.807016 1017.5936,97.438596 C 1017.5936,110.35088 1013.6637,114.09357 1005.0556,114.09357 996.44736,114.09357 992.51754,110.35088 992.51754,97.438596 L 992.51754,52.807016 974.9269,52.807016 974.9269,102.58479 C 974.9269,121.67251 985.40643,131.40351 1005.0556,131.40351 1024.7047,131.40351 1035.1842,121.67251 1035.1842,102.58479 L 1035.1842,52.807016 Z"/>
	<path d="M 1050.4898,52.807016 1050.4898,130 1072.8523,130 C 1094.0921,130 1111.7763,113.90643 1111.7763,91.356724 1111.7763,68.900584 1093.9985,52.807016 1072.8523,52.807016 L 1050.4898,52.807016 Z M 1068.0804,114.2807 1068.0804,68.526315 1070.7939,68.526315 C 1083.8933,68.526315 1092.7822,78.538011 1092.7822,91.450292 1092.6886,104.36257 1083.7997,114.2807 1070.7939,114.2807 L 1068.0804,114.2807 Z"/>
	<path d="M 1142.1594,52.807016 1124.5687,52.807016 1124.5687,130 1142.1594,130 1142.1594,52.807016 Z"/>
	<path d="M 1196.595,114.09357 C 1178.9108,114.09357 1171.1447,101.74269 1171.1447,91.356724 1171.1447,81.064327 1178.9108,68.713449 1196.595,68.713449 1205.5775,68.713449 1211.7529,73.485379 1211.7529,73.485379 L 1219.2383,58.514619 C 1219.2383,58.514619 1210.6301,51.403507 1193.8816,51.403507 1171.9868,51.403507 1152.057,69.36842 1152.057,91.543859 1152.057,113.62573 1172.0804,131.40351 1193.8816,131.40351 1210.6301,131.40351 1219.2383,124.2924 1219.2383,124.2924 L 1211.7529,109.32164 C 1211.7529,109.32164 1205.5775,114.09357 1196.595,114.09357 Z"/>
	<path d="M 1275.2238,52.807016 1231.06,52.807016 1231.06,130 1275.2238,130 1275.2238,114.5614 1248.6507,114.5614 1248.6507,99.029239 1274.101,99.029239 1274.101,83.590642 1248.6507,83.590642 1248.6507,68.245613 1275.2238,68.245613 1275.2238,52.807016 Z"/>
	<path d="M 456.52796,232.10526 443.33498,232.10526 443.33498,270.2807 C 443.33498,276.10526 440.45779,278.42105 436.66831,278.42105 433.29989,278.42105 429.15954,274.49123 429.15954,274.49123 L 424.94902,285.50877 C 424.94902,285.50877 430.21217,291.05263 438.49288,291.05263 450.07182,291.05263 456.52796,285.01754 456.52796,273.64912 L 456.52796,232.10526 Z"/>
	<path d="M 498.63323,232.10526 486.4227,232.10526 463.05428,290 477.22972,290 481.51042,278.42105 503.54551,278.42105 507.82621,290 522.00165,290 498.63323,232.10526 Z M 499.05428,266.84211 486.00165,266.84211 492.45779,250 492.59814,250 499.05428,266.84211 Z"/>
	<path d="M 542.38432,254.07018 542.52467,254.07018 565.54222,290 578.7352,290 578.7352,232.10526 565.54222,232.10526 565.54222,268.03509 565.40187,268.03509 542.38432,232.10526 529.19134,232.10526 529.19134,290 542.38432,290 542.38432,254.07018 Z"/>
	<path d="M 625.29113,232.10526 592.16832,232.10526 592.16832,290 625.29113,290 625.29113,278.42105 605.36131,278.42105 605.36131,266.77193 624.44903,266.77193 624.44903,255.19298 605.36131,255.19298 605.36131,243.68421 625.29113,243.68421 625.29113,232.10526 Z"/>
	<path d="M 691.46766,232.10526 679.25713,232.10526 655.88871,290 670.06415,290 674.34485,278.42105 696.37994,278.42105 700.66064,290 714.83608,290 691.46766,232.10526 Z M 691.88871,266.84211 678.83608,266.84211 685.29222,250 685.43257,250 691.88871,266.84211 Z"/>
	<path d="M 766.517,232.10526 753.32402,232.10526 753.32402,265.57895 C 753.32402,275.26316 750.37665,278.07018 743.92051,278.07018 737.46437,278.07018 734.517,275.26316 734.517,265.57895 L 734.517,232.10526 721.32402,232.10526 721.32402,269.4386 C 721.32402,283.75439 729.18367,291.05263 743.92051,291.05263 758.65735,291.05263 766.517,283.75439 766.517,269.4386 L 766.517,232.10526 Z"/>
	<path d="M 799.2089,231.05263 C 789.87557,231.05263 780.33171,237.92983 780.33171,248.73684 780.33171,254.77193 784.40188,260.17544 791.34925,263.61404 798.22645,267.05263 804.40188,268.94737 804.40188,273.15789 804.40188,278.5614 798.9282,278.84211 796.05101,278.84211 789.59487,278.84211 781.87557,272.31579 781.87557,272.31579 L 775.27908,283.40351 C 775.27908,283.40351 783.4896,291.05263 797.03346,291.05263 808.33171,291.05263 818.85802,286.21053 818.85802,272.38597 818.85802,264.80702 811.77031,259.33333 805.31417,256.59649 798.71767,253.78947 793.24399,251.47368 793.24399,248.24561 793.24399,245.08772 795.62995,243.05263 800.12118,243.05263 806.08609,243.05263 811.84048,247.05263 811.84048,247.05263 L 817.17381,236.52632 C 817.17381,236.52632 809.73522,231.05263 799.2089,231.05263 Z"/>
	<path d="M 822.94901,243.68421 836.7034,243.68421 836.7034,290 849.89638,290 849.89638,243.68421 863.65076,243.68421 863.65076,232.10526 822.94901,232.10526 822.94901,243.68421 Z"/>
	<path d="M 906.52468,232.10526 873.40187,232.10526 873.40187,290 906.52468,290 906.52468,278.42105 886.59486,278.42105 886.59486,266.77193 905.68258,266.77193 905.68258,255.19298 886.59486,255.19298 886.59486,243.68421 906.52468,243.68421 906.52468,232.10526 Z"/>
	<path d="M 932.3021,254.07018 932.44245,254.07018 955.46,290 968.65298,290 968.65298,232.10526 955.46,232.10526 955.46,268.03509 955.31965,268.03509 932.3021,232.10526 919.10912,232.10526 919.10912,290 932.3021,290 932.3021,254.07018 Z"/>
</svg>
